images/Chk1N90.svg

<?xml version="1.0" encoding="UTF-8"?>
<svg xmlns="http://www.w3.org/2000/svg" xmlns:xlink="http://www.w3.org/1999/xlink" width="300pt" height="300pt" viewBox="0 0 300 300" version="1.1">
<defs>
<g>
<symbol overflow="visible" id="glyph0-0">
<path style="stroke:none;" d="M 0.453125 1.59375 L 0.453125 -6.34375 L 4.953125 -6.34375 L 4.953125 1.59375 Z M 0.953125 1.09375 L 4.453125 1.09375 L 4.453125 -5.84375 L 0.953125 -5.84375 Z M 0.953125 1.09375 "/>
</symbol>
<symbol overflow="visible" id="glyph0-1">
<path style="stroke:none;" d="M 3.546875 -5.953125 C 2.898438 -5.953125 2.382812 -5.710938 2 -5.234375 C 1.625 -4.753906 1.4375 -4.101562 1.4375 -3.28125 C 1.4375 -2.445312 1.625 -1.789062 2 -1.3125 C 2.382812 -0.832031 2.898438 -0.59375 3.546875 -0.59375 C 4.191406 -0.59375 4.703125 -0.832031 5.078125 -1.3125 C 5.453125 -1.789062 5.640625 -2.445312 5.640625 -3.28125 C 5.640625 -4.101562 5.453125 -4.753906 5.078125 -5.234375 C 4.703125 -5.710938 4.191406 -5.953125 3.546875 -5.953125 Z M 3.546875 -6.6875 C 4.460938 -6.6875 5.195312 -6.375 5.75 -5.75 C 6.300781 -5.132812 6.578125 -4.3125 6.578125 -3.28125 C 6.578125 -2.238281 6.300781 -1.410156 5.75 -0.796875 C 5.195312 -0.179688 4.460938 0.125 3.546875 0.125 C 2.617188 0.125 1.878906 -0.179688 1.328125 -0.796875 C 0.773438 -1.410156 0.5 -2.238281 0.5 -3.28125 C 0.5 -4.3125 0.773438 -5.132812 1.328125 -5.75 C 1.878906 -6.375 2.617188 -6.6875 3.546875 -6.6875 Z M 3.546875 -6.6875 "/>
</symbol>
<symbol overflow="visible" id="glyph0-2">
<path style="stroke:none;" d="M 0.890625 -6.5625 L 2.078125 -6.5625 L 4.984375 -1.078125 L 4.984375 -6.5625 L 5.84375 -6.5625 L 5.84375 0 L 4.65625 0 L 1.75 -5.484375 L 1.75 0 L 0.890625 0 Z M 0.890625 -6.5625 "/>
</symbol>
<symbol overflow="visible" id="glyph0-3">
<path style="stroke:none;" d="M 0.890625 -6.5625 L 1.765625 -6.5625 L 1.765625 -3.875 L 5 -3.875 L 5 -6.5625 L 5.890625 -6.5625 L 5.890625 0 L 5 0 L 5 -3.125 L 1.765625 -3.125 L 1.765625 0 L 0.890625 0 Z M 0.890625 -6.5625 "/>
</symbol>
</g>
</defs>
<g id="surface165">
<rect x="0" y="0" width="300" height="300" style="fill:rgb(100%,100%,100%);fill-opacity:1;stroke:none;"/>
<path style="fill:none;stroke-width:1.2;stroke-linecap:butt;stroke-linejoin:miter;stroke:rgb(100%,0%,0%);stroke-opacity:1;stroke-miterlimit:10;" d="M 158.507812 138.226562 L 157.652344 148.0625 "/>
<path style="fill:none;stroke-width:1.2;stroke-linecap:butt;stroke-linejoin:miter;stroke:rgb(0%,0%,0%);stroke-opacity:1;stroke-miterlimit:10;" d="M 157.652344 148.0625 L 156.800781 157.898438 "/>
<path style="fill:none;stroke-width:1.2;stroke-linecap:butt;stroke-linejoin:miter;stroke:rgb(100%,0%,0%);stroke-opacity:1;stroke-miterlimit:10;" d="M 163.136719 138.628906 L 162.28125 148.464844 "/>
<path style="fill:none;stroke-width:1.2;stroke-linecap:butt;stroke-linejoin:miter;stroke:rgb(0%,0%,0%);stroke-opacity:1;stroke-miterlimit:10;" d="M 162.28125 148.464844 L 161.429688 158.300781 "/>
<path style=" stroke:none;fill-rule:nonzero;fill:rgb(100%,100%,100%);fill-opacity:1;" d="M 156.820312 132.929688 L 164.820312 132.929688 L 164.820312 143.929688 L 156.820312 143.929688 Z M 156.820312 132.929688 "/>
<g style="fill:rgb(100%,0%,0%);fill-opacity:1;">
  <use xlink:href="#glyph0-1" x="156.820312" y="141.592773"/>
</g>
<path style="fill:none;stroke-width:1.2;stroke-linecap:butt;stroke-linejoin:miter;stroke:rgb(0%,0%,0%);stroke-opacity:1;stroke-miterlimit:10;" d="M 159.113281 158.101562 L 167.207031 163.757812 "/>
<path style="fill:none;stroke-width:1.2;stroke-linecap:butt;stroke-linejoin:miter;stroke:rgb(0%,0%,100%);stroke-opacity:1;stroke-miterlimit:10;" d="M 167.207031 163.757812 L 175.296875 169.414062 "/>
<path style="fill:none;stroke-width:1.2;stroke-linecap:butt;stroke-linejoin:miter;stroke:rgb(0%,0%,0%);stroke-opacity:1;stroke-miterlimit:10;" d="M 159.113281 158.101562 L 150.167969 162.277344 "/>
<path style="fill:none;stroke-width:1.2;stroke-linecap:butt;stroke-linejoin:miter;stroke:rgb(0%,0%,100%);stroke-opacity:1;stroke-miterlimit:10;" d="M 150.167969 162.277344 L 141.222656 166.457031 "/>
<path style="fill:none;stroke-width:1.2;stroke-linecap:butt;stroke-linejoin:miter;stroke:rgb(0%,0%,100%);stroke-opacity:1;stroke-miterlimit:10;" d="M 175.296875 169.414062 L 184.242188 165.238281 "/>
<path style="fill:none;stroke-width:1.2;stroke-linecap:butt;stroke-linejoin:miter;stroke:rgb(0%,0%,0%);stroke-opacity:1;stroke-miterlimit:10;" d="M 184.242188 165.238281 L 193.1875 161.058594 "/>
<path style=" stroke:none;fill-rule:nonzero;fill:rgb(100%,100%,100%);fill-opacity:1;" d="M 168.296875 163.914062 L 182.296875 163.914062 L 182.296875 174.914062 L 168.296875 174.914062 Z M 168.296875 163.914062 "/>
<g style="fill:rgb(0%,0%,100%);fill-opacity:1;">
  <use xlink:href="#glyph0-2" x="168.296875" y="172.577148"/>
  <use xlink:href="#glyph0-3" x="175.274414" y="172.577148"/>
</g>
<path style="fill:none;stroke-width:1.2;stroke-linecap:butt;stroke-linejoin:miter;stroke:rgb(0%,0%,0%);stroke-opacity:1;stroke-miterlimit:10;" d="M 193.1875 161.058594 L 209.371094 172.371094 "/>
<path style="fill:none;stroke-width:1.2;stroke-linecap:butt;stroke-linejoin:miter;stroke:rgb(0%,0%,0%);stroke-opacity:1;stroke-miterlimit:10;" d="M 197.46875 158.382812 L 210.414062 167.433594 "/>
<path style="fill:none;stroke-width:1.2;stroke-linecap:butt;stroke-linejoin:miter;stroke:rgb(0%,0%,100%);stroke-opacity:1;stroke-miterlimit:10;" d="M 194.894531 141.386719 L 194.042969 151.222656 "/>
<path style="fill:none;stroke-width:1.2;stroke-linecap:butt;stroke-linejoin:miter;stroke:rgb(0%,0%,0%);stroke-opacity:1;stroke-miterlimit:10;" d="M 194.042969 151.222656 L 193.1875 161.058594 "/>
<path style="fill:none;stroke-width:1.2;stroke-linecap:butt;stroke-linejoin:miter;stroke:rgb(0%,0%,0%);stroke-opacity:1;stroke-miterlimit:10;" d="M 209.371094 172.371094 L 218.316406 168.195312 "/>
<path style="fill:none;stroke-width:1.2;stroke-linecap:butt;stroke-linejoin:miter;stroke:rgb(0%,0%,100%);stroke-opacity:1;stroke-miterlimit:10;" d="M 218.316406 168.195312 L 227.261719 164.015625 "/>
<path style="fill:none;stroke-width:1.2;stroke-linecap:butt;stroke-linejoin:miter;stroke:rgb(0%,0%,100%);stroke-opacity:1;stroke-miterlimit:10;" d="M 227.261719 164.015625 L 228.113281 154.179688 "/>
<path style="fill:none;stroke-width:1.2;stroke-linecap:butt;stroke-linejoin:miter;stroke:rgb(0%,0%,0%);stroke-opacity:1;stroke-miterlimit:10;" d="M 228.113281 154.179688 L 228.96875 144.34375 "/>
<path style="fill:none;stroke-width:1.2;stroke-linecap:butt;stroke-linejoin:miter;stroke:rgb(0%,0%,100%);stroke-opacity:1;stroke-miterlimit:10;" d="M 222.804688 161.644531 L 223.484375 153.777344 "/>
<path style="fill:none;stroke-width:1.2;stroke-linecap:butt;stroke-linejoin:miter;stroke:rgb(0%,0%,0%);stroke-opacity:1;stroke-miterlimit:10;" d="M 223.484375 153.777344 L 224.167969 145.90625 "/>
<path style=" stroke:none;fill-rule:nonzero;fill:rgb(100%,100%,100%);fill-opacity:1;" d="M 224.261719 158.515625 L 231.261719 158.515625 L 231.261719 169.515625 L 224.261719 169.515625 Z M 224.261719 158.515625 "/>
<g style="fill:rgb(0%,0%,100%);fill-opacity:1;">
  <use xlink:href="#glyph0-2" x="224.261719" y="167.178711"/>
</g>
<path style="fill:none;stroke-width:1.2;stroke-linecap:butt;stroke-linejoin:miter;stroke:rgb(0%,0%,0%);stroke-opacity:1;stroke-miterlimit:10;" d="M 228.96875 144.34375 L 212.785156 133.027344 "/>
<path style="fill:none;stroke-width:1.2;stroke-linecap:butt;stroke-linejoin:miter;stroke:rgb(0%,0%,0%);stroke-opacity:1;stroke-miterlimit:10;" d="M 228.96875 144.34375 L 246.859375 135.984375 "/>
<path style="fill:none;stroke-width:1.2;stroke-linecap:butt;stroke-linejoin:miter;stroke:rgb(0%,0%,0%);stroke-opacity:1;stroke-miterlimit:10;" d="M 212.785156 133.027344 L 203.839844 137.207031 "/>
<path style="fill:none;stroke-width:1.2;stroke-linecap:butt;stroke-linejoin:miter;stroke:rgb(0%,0%,100%);stroke-opacity:1;stroke-miterlimit:10;" d="M 203.839844 137.207031 L 194.894531 141.386719 "/>
<path style="fill:none;stroke-width:1.2;stroke-linecap:butt;stroke-linejoin:miter;stroke:rgb(0%,0%,0%);stroke-opacity:1;stroke-miterlimit:10;" d="M 212.964844 138.074219 L 205.808594 141.414062 "/>
<path style="fill:none;stroke-width:1.2;stroke-linecap:butt;stroke-linejoin:miter;stroke:rgb(0%,0%,100%);stroke-opacity:1;stroke-miterlimit:10;" d="M 205.808594 141.414062 L 198.652344 144.757812 "/>
<path style=" stroke:none;fill-rule:nonzero;fill:rgb(100%,100%,100%);fill-opacity:1;" d="M 191.894531 135.886719 L 198.894531 135.886719 L 198.894531 146.886719 L 191.894531 146.886719 Z M 191.894531 135.886719 "/>
<g style="fill:rgb(0%,0%,100%);fill-opacity:1;">
  <use xlink:href="#glyph0-2" x="191.894531" y="144.549805"/>
</g>
<path style="fill:none;stroke-width:1.2;stroke-linecap:butt;stroke-linejoin:miter;stroke:rgb(0%,0%,0%);stroke-opacity:1;stroke-miterlimit:10;" d="M 246.859375 135.984375 L 255.804688 131.804688 "/>
<path style="fill:none;stroke-width:1.2;stroke-linecap:butt;stroke-linejoin:miter;stroke:rgb(0%,0%,100%);stroke-opacity:1;stroke-miterlimit:10;" d="M 255.804688 131.804688 L 264.75 127.628906 "/>
<path style="fill:none;stroke-width:1.2;stroke-linecap:butt;stroke-linejoin:miter;stroke:rgb(0%,0%,0%);stroke-opacity:1;stroke-miterlimit:10;" d="M 250.613281 139.359375 L 257.769531 136.015625 "/>
<path style="fill:none;stroke-width:1.2;stroke-linecap:butt;stroke-linejoin:miter;stroke:rgb(0%,0%,100%);stroke-opacity:1;stroke-miterlimit:10;" d="M 257.769531 136.015625 L 264.925781 132.671875 "/>
<path style="fill:none;stroke-width:1.2;stroke-linecap:butt;stroke-linejoin:miter;stroke:rgb(0%,0%,0%);stroke-opacity:1;stroke-miterlimit:10;" d="M 246.683594 130.941406 L 253.839844 127.597656 "/>
<path style="fill:none;stroke-width:1.2;stroke-linecap:butt;stroke-linejoin:miter;stroke:rgb(0%,0%,100%);stroke-opacity:1;stroke-miterlimit:10;" d="M 253.839844 127.597656 L 260.996094 124.253906 "/>
<path style=" stroke:none;fill-rule:nonzero;fill:rgb(100%,100%,100%);fill-opacity:1;" d="M 261.75 122.128906 L 268.75 122.128906 L 268.75 133.128906 L 261.75 133.128906 Z M 261.75 122.128906 "/>
<g style="fill:rgb(0%,0%,100%);fill-opacity:1;">
  <use xlink:href="#glyph0-2" x="261.75" y="130.791992"/>
</g>
<path style="fill:none;stroke-width:1.2;stroke-linecap:butt;stroke-linejoin:miter;stroke:rgb(0%,0%,100%);stroke-opacity:1;stroke-miterlimit:10;" d="M 141.222656 166.457031 L 133.132812 160.800781 "/>
<path style="fill:none;stroke-width:1.2;stroke-linecap:butt;stroke-linejoin:miter;stroke:rgb(0%,0%,0%);stroke-opacity:1;stroke-miterlimit:10;" d="M 133.132812 160.800781 L 125.039062 155.144531 "/>
<path style=" stroke:none;fill-rule:nonzero;fill:rgb(100%,100%,100%);fill-opacity:1;" d="M 134.222656 160.957031 L 148.222656 160.957031 L 148.222656 171.957031 L 134.222656 171.957031 Z M 134.222656 160.957031 "/>
<g style="fill:rgb(0%,0%,100%);fill-opacity:1;">
  <use xlink:href="#glyph0-2" x="134.222656" y="169.620117"/>
  <use xlink:href="#glyph0-3" x="141.200195" y="169.620117"/>
</g>
<path style="fill:none;stroke-width:1.2;stroke-linecap:butt;stroke-linejoin:miter;stroke:rgb(0%,0%,0%);stroke-opacity:1;stroke-miterlimit:10;" d="M 125.039062 155.144531 L 106.375 161.585938 "/>
<path style="fill:none;stroke-width:1.2;stroke-linecap:butt;stroke-linejoin:miter;stroke:rgb(0%,0%,100%);stroke-opacity:1;stroke-miterlimit:10;" d="M 124.683594 135.398438 L 124.859375 145.269531 "/>
<path style="fill:none;stroke-width:1.2;stroke-linecap:butt;stroke-linejoin:miter;stroke:rgb(0%,0%,0%);stroke-opacity:1;stroke-miterlimit:10;" d="M 124.859375 145.269531 L 125.039062 155.144531 "/>
<path style="fill:none;stroke-width:1.2;stroke-linecap:butt;stroke-linejoin:miter;stroke:rgb(0%,0%,100%);stroke-opacity:1;stroke-miterlimit:10;" d="M 120.074219 137.457031 L 120.214844 145.355469 "/>
<path style="fill:none;stroke-width:1.2;stroke-linecap:butt;stroke-linejoin:miter;stroke:rgb(0%,0%,0%);stroke-opacity:1;stroke-miterlimit:10;" d="M 120.214844 145.355469 L 120.359375 153.253906 "/>
<path style="fill:none;stroke-width:1.2;stroke-linecap:butt;stroke-linejoin:miter;stroke:rgb(0%,0%,0%);stroke-opacity:1;stroke-miterlimit:10;" d="M 106.375 161.585938 L 94.480469 145.824219 "/>
<path style="fill:none;stroke-width:1.2;stroke-linecap:butt;stroke-linejoin:miter;stroke:rgb(0%,0%,0%);stroke-opacity:1;stroke-miterlimit:10;" d="M 108.894531 157.210938 L 99.378906 144.601562 "/>
<path style="fill:none;stroke-width:1.2;stroke-linecap:butt;stroke-linejoin:miter;stroke:rgb(0%,0%,0%);stroke-opacity:1;stroke-miterlimit:10;" d="M 94.480469 145.824219 L 100.136719 137.730469 "/>
<path style="fill:none;stroke-width:1.2;stroke-linecap:butt;stroke-linejoin:miter;stroke:rgb(0%,0%,100%);stroke-opacity:1;stroke-miterlimit:10;" d="M 100.136719 137.730469 L 105.792969 129.640625 "/>
<path style="fill:none;stroke-width:1.2;stroke-linecap:butt;stroke-linejoin:miter;stroke:rgb(0%,0%,0%);stroke-opacity:1;stroke-miterlimit:10;" d="M 94.480469 145.824219 L 74.738281 146.179688 "/>
<path style="fill:none;stroke-width:1.2;stroke-linecap:butt;stroke-linejoin:miter;stroke:rgb(0%,0%,100%);stroke-opacity:1;stroke-miterlimit:10;" d="M 105.792969 129.640625 L 124.683594 135.398438 "/>
<path style=" stroke:none;fill-rule:nonzero;fill:rgb(100%,100%,100%);fill-opacity:1;" d="M 98.792969 124.140625 L 112.792969 124.140625 L 112.792969 135.140625 L 98.792969 135.140625 Z M 98.792969 124.140625 "/>
<g style="fill:rgb(0%,0%,100%);fill-opacity:1;">
  <use xlink:href="#glyph0-2" x="98.792969" y="132.803711"/>
  <use xlink:href="#glyph0-3" x="105.770508" y="132.803711"/>
</g>
<path style=" stroke:none;fill-rule:nonzero;fill:rgb(100%,100%,100%);fill-opacity:1;" d="M 121.683594 129.898438 L 128.683594 129.898438 L 128.683594 140.898438 L 121.683594 140.898438 Z M 121.683594 129.898438 "/>
<g style="fill:rgb(0%,0%,100%);fill-opacity:1;">
  <use xlink:href="#glyph0-2" x="121.683594" y="138.561523"/>
</g>
<path style="fill:none;stroke-width:1.2;stroke-linecap:butt;stroke-linejoin:miter;stroke:rgb(0%,0%,0%);stroke-opacity:1;stroke-miterlimit:10;" d="M 74.738281 146.179688 L 64.554688 129.261719 "/>
<path style="fill:none;stroke-width:1.2;stroke-linecap:butt;stroke-linejoin:miter;stroke:rgb(0%,0%,0%);stroke-opacity:1;stroke-miterlimit:10;" d="M 69.738281 146.882812 L 61.589844 133.347656 "/>
<path style="fill:none;stroke-width:1.2;stroke-linecap:butt;stroke-linejoin:miter;stroke:rgb(0%,0%,0%);stroke-opacity:1;stroke-miterlimit:10;" d="M 65.175781 163.457031 L 74.738281 146.179688 "/>
<path style="fill:none;stroke-width:1.2;stroke-linecap:butt;stroke-linejoin:miter;stroke:rgb(0%,0%,0%);stroke-opacity:1;stroke-miterlimit:10;" d="M 64.554688 129.261719 L 44.8125 129.621094 "/>
<path style="fill:none;stroke-width:1.2;stroke-linecap:butt;stroke-linejoin:miter;stroke:rgb(0%,0%,0%);stroke-opacity:1;stroke-miterlimit:10;" d="M 44.8125 129.621094 L 35.25 146.898438 "/>
<path style="fill:none;stroke-width:1.2;stroke-linecap:butt;stroke-linejoin:miter;stroke:rgb(0%,0%,0%);stroke-opacity:1;stroke-miterlimit:10;" d="M 47.921875 133.597656 L 40.269531 147.417969 "/>
<path style="fill:none;stroke-width:1.2;stroke-linecap:butt;stroke-linejoin:miter;stroke:rgb(0%,0%,0%);stroke-opacity:1;stroke-miterlimit:10;" d="M 35.25 146.898438 L 45.433594 163.816406 "/>
<path style="fill:none;stroke-width:1.2;stroke-linecap:butt;stroke-linejoin:miter;stroke:rgb(0%,0%,0%);stroke-opacity:1;stroke-miterlimit:10;" d="M 45.433594 163.816406 L 65.175781 163.457031 "/>
<path style="fill:none;stroke-width:1.2;stroke-linecap:butt;stroke-linejoin:miter;stroke:rgb(0%,0%,0%);stroke-opacity:1;stroke-miterlimit:10;" d="M 47.320312 159.136719 L 63.117188 158.847656 "/>
</g>
</svg>

<svg xmlns="http://www.w3.org/2000/svg" xmlns:xlink="http://www.w3.org/1999/xlink" width="300pt" height="300pt" viewBox="0 0 300 300"><defs><symbol overflow="visible"><path d="M.453 1.594v-7.938h4.5v7.938zm.5-.5h3.5v-6.938h-3.5zm0 0"/></symbol><symbol overflow="visible" id="a"><path d="M3.547-5.953c-.65 0-1.164.242-1.547.72-.375.48-.563 1.13-.563 1.952 0 .835.188 1.49.563 1.967.383.48.898.72 1.547.72.644 0 1.156-.24 1.53-.72.376-.476.564-1.132.564-1.968 0-.822-.187-1.474-.562-1.954-.375-.477-.887-.72-1.53-.72zm0-.734c.914 0 1.648.312 2.203.937.55.617.828 1.438.828 2.47 0 1.042-.277 1.87-.828 2.483-.555.617-1.29.922-2.203.922-.93 0-1.668-.305-2.22-.922C.774-1.41.5-2.237.5-3.28c0-1.033.273-1.853.828-2.47.55-.625 1.29-.938 2.22-.938zm0 0"/></symbol><symbol overflow="visible" id="b"><path d="M.89-6.563H2.08l2.906 5.485v-5.484h.86V0H4.656L1.75-5.484V0H.89zm0 0"/></symbol><symbol overflow="visible" id="c"><path d="M.89-6.563h.876v2.688H5v-2.688h.89V0H5v-3.125H1.766V0H.89zm0 0"/></symbol></defs><g><path fill="#fff" d="M0 0h300v300H0z"/><path d="M158.508 138.227l-.856 9.835" stroke-width="1.2" stroke="#f00" stroke-miterlimit="10" fill="none"/><path d="M157.652 148.063l-.85 9.835" stroke-width="1.2" stroke="#000" stroke-miterlimit="10" fill="none"/><path d="M163.137 138.63l-.856 9.835" stroke-width="1.2" stroke="#f00" stroke-miterlimit="10" fill="none"/><path d="M162.28 148.465l-.85 9.836" stroke-width="1.2" stroke="#000" stroke-miterlimit="10" fill="none"/><path d="M156.82 132.93h8v11h-8zm0 0" fill="#fff"/><use xlink:href="#a" x="156.82" y="141.593" fill="#f00"/><path d="M159.113 158.102l8.094 5.656" stroke-width="1.2" stroke="#000" stroke-miterlimit="10" fill="none"/><path d="M167.207 163.758l8.09 5.656" stroke-width="1.2" stroke="#00f" stroke-miterlimit="10" fill="none"/><path d="M159.113 158.102l-8.945 4.175" stroke-width="1.2" stroke="#000" stroke-miterlimit="10" fill="none"/><path d="M150.168 162.277l-8.945 4.18M175.297 169.414l8.945-4.176" stroke-width="1.2" stroke="#00f" stroke-miterlimit="10" fill="none"/><path d="M184.242 165.238l8.946-4.18" stroke-width="1.2" stroke="#000" stroke-miterlimit="10" fill="none"/><path d="M168.297 163.914h14v11h-14zm0 0" fill="#fff"/><g fill="#00f"><use xlink:href="#b" x="168.297" y="172.577"/><use xlink:href="#c" x="175.274" y="172.577"/></g><path d="M193.188 161.06l16.183 11.31M197.47 158.383l12.944 9.05" stroke-width="1.2" stroke="#000" stroke-miterlimit="10" fill="none"/><path d="M194.895 141.387l-.852 9.836" stroke-width="1.2" stroke="#00f" stroke-miterlimit="10" fill="none"/><path d="M194.043 151.223l-.856 9.836M209.37 172.37l8.946-4.175" stroke-width="1.2" stroke="#000" stroke-miterlimit="10" fill="none"/><path d="M218.316 168.195l8.946-4.18M227.262 164.016l.85-9.836" stroke-width="1.2" stroke="#00f" stroke-miterlimit="10" fill="none"/><path d="M228.113 154.18l.856-9.836" stroke-width="1.2" stroke="#000" stroke-miterlimit="10" fill="none"/><path d="M222.805 161.645l.68-7.868" stroke-width="1.2" stroke="#00f" stroke-miterlimit="10" fill="none"/><path d="M223.484 153.777l.684-7.87" stroke-width="1.2" stroke="#000" stroke-miterlimit="10" fill="none"/><path d="M224.262 158.516h7v11h-7zm0 0" fill="#fff"/><use xlink:href="#b" x="224.262" y="167.179" fill="#00f"/><path d="M228.97 144.344l-16.185-11.317M228.97 144.344l17.89-8.36M212.785 133.027l-8.945 4.18" stroke-width="1.2" stroke="#000" stroke-miterlimit="10" fill="none"/><path d="M203.84 137.207l-8.945 4.18" stroke-width="1.2" stroke="#00f" stroke-miterlimit="10" fill="none"/><path d="M212.965 138.074l-7.156 3.34" stroke-width="1.2" stroke="#000" stroke-miterlimit="10" fill="none"/><path d="M205.81 141.414l-7.158 3.344" stroke-width="1.2" stroke="#00f" stroke-miterlimit="10" fill="none"/><path d="M191.895 135.887h7v11h-7zm0 0" fill="#fff"/><use xlink:href="#b" x="191.895" y="144.55" fill="#00f"/><path d="M246.86 135.984l8.945-4.18" stroke-width="1.2" stroke="#000" stroke-miterlimit="10" fill="none"/><path d="M255.805 131.805l8.945-4.176" stroke-width="1.2" stroke="#00f" stroke-miterlimit="10" fill="none"/><path d="M250.613 139.36l7.157-3.344" stroke-width="1.2" stroke="#000" stroke-miterlimit="10" fill="none"/><path d="M257.77 136.016l7.156-3.344" stroke-width="1.2" stroke="#00f" stroke-miterlimit="10" fill="none"/><path d="M246.684 130.94l7.156-3.342" stroke-width="1.2" stroke="#000" stroke-miterlimit="10" fill="none"/><path d="M253.84 127.598l7.156-3.344" stroke-width="1.2" stroke="#00f" stroke-miterlimit="10" fill="none"/><path d="M261.75 122.13h7v11h-7zm0 0" fill="#fff"/><use xlink:href="#b" x="261.75" y="130.792" fill="#00f"/><path d="M141.223 166.457l-8.09-5.656" stroke-width="1.2" stroke="#00f" stroke-miterlimit="10" fill="none"/><path d="M133.133 160.8l-8.094-5.655" stroke-width="1.2" stroke="#000" stroke-miterlimit="10" fill="none"/><path d="M134.223 160.957h14v11h-14zm0 0" fill="#fff"/><g fill="#00f"><use xlink:href="#b" x="134.223" y="169.62"/><use xlink:href="#c" x="141.2" y="169.62"/></g><path d="M125.04 155.145l-18.665 6.44" stroke-width="1.2" stroke="#000" stroke-miterlimit="10" fill="none"/><path d="M124.684 135.398l.175 9.872" stroke-width="1.2" stroke="#00f" stroke-miterlimit="10" fill="none"/><path d="M124.86 145.27l.18 9.875" stroke-width="1.2" stroke="#000" stroke-miterlimit="10" fill="none"/><path d="M120.074 137.457l.14 7.898" stroke-width="1.2" stroke="#00f" stroke-miterlimit="10" fill="none"/><path d="M120.215 145.355l.144 7.9M106.375 161.586L94.48 145.824M108.895 157.21l-9.516-12.608M94.48 145.824l5.657-8.094" stroke-width="1.2" stroke="#000" stroke-miterlimit="10" fill="none"/><path d="M100.137 137.73l5.656-8.09" stroke-width="1.2" stroke="#00f" stroke-miterlimit="10" fill="none"/><path d="M94.48 145.824l-19.742.356" stroke-width="1.2" stroke="#000" stroke-miterlimit="10" fill="none"/><path d="M105.793 129.64l18.89 5.758" stroke-width="1.2" stroke="#00f" stroke-miterlimit="10" fill="none"/><path d="M98.793 124.14h14v11h-14zm0 0" fill="#fff"/><g fill="#00f"><use xlink:href="#b" x="98.793" y="132.804"/><use xlink:href="#c" x="105.771" y="132.804"/></g><path d="M121.684 129.898h7v11h-7zm0 0" fill="#fff"/><use xlink:href="#b" x="121.684" y="138.562" fill="#00f"/><path d="M74.738 146.18l-10.183-16.918M69.738 146.883l-8.148-13.535M65.176 163.457l9.562-17.277M64.555 129.262l-19.743.36M44.813 129.62L35.25 146.9M47.922 133.598l-7.652 13.82M35.25 146.898l10.184 16.918M45.434 163.816l19.742-.36M47.32 159.137l15.797-.29" stroke-width="1.2" stroke="#000" stroke-miterlimit="10" fill="none"/></g></svg>
